src/assets/outline/Bluetooth2.svg

<svg width="24" height="24" viewBox="0 0 24 24"  xmlns="http://www.w3.org/2000/svg">
<path d="M12.1299 22.7501C11.8599 22.7501 11.6498 22.6801 11.4998 22.6101C11.1398 22.4401 10.5298 21.9701 10.5298 20.7101V14.2601L5.13986 19.2001C4.83986 19.4801 4.35983 19.4601 4.07983 19.1501C3.79983 18.8401 3.81985 18.3701 4.12985 18.0901L10.5298 12.2201V11.7701L4.12985 5.90008C3.81985 5.62008 3.79983 5.15008 4.07983 4.84008C4.35983 4.54008 4.83986 4.51009 5.13986 4.79009L10.5298 9.73009V3.28008C10.5298 2.02008 11.1398 1.54009 11.4998 1.38009C11.8598 1.21009 12.6098 1.05007 13.5798 1.86007L17.4298 5.07009C17.8498 5.42009 18.0998 5.9201 18.1098 6.4501C18.1198 6.98009 17.8998 7.49007 17.4898 7.86007L12.9898 11.9901L17.4898 16.1201C17.8898 16.4901 18.1198 17.0101 18.1098 17.5301C18.0998 18.0601 17.8498 18.5601 17.4298 18.9101L13.5798 22.1201C13.0098 22.6101 12.5099 22.7501 12.1299 22.7501ZM12.0298 13.1501V20.7101C12.0298 21.0801 12.1098 21.2401 12.1498 21.2601C12.1598 21.2501 12.3398 21.2101 12.6198 20.9801L16.4698 17.7701C16.5598 17.6901 16.6098 17.6001 16.6098 17.5001C16.6098 17.4001 16.5699 17.3101 16.4799 17.2301L12.0298 13.1501ZM12.1198 2.75008C12.1098 2.76008 12.0298 2.93009 12.0298 3.29009V10.8501L16.4799 6.77007C16.5699 6.69007 16.6098 6.60008 16.6098 6.50008C16.6098 6.40008 16.5598 6.31009 16.4698 6.23009L12.6098 3.02007C12.3498 2.80007 12.1798 2.75008 12.1198 2.75008Z" />
<path d="M5 13.75C4.04 13.75 3.25 12.96 3.25 12C3.25 11.04 4.04 10.25 5 10.25C5.96 10.25 6.75 11.04 6.75 12C6.75 12.96 5.96 13.75 5 13.75ZM5 11.75C4.86 11.75 4.75 11.86 4.75 12C4.75 12.28 5.25 12.28 5.25 12C5.25 11.86 5.14 11.75 5 11.75Z" />
<path d="M19 13.75C18.04 13.75 17.25 12.96 17.25 12C17.25 11.04 18.04 10.25 19 10.25C19.96 10.25 20.75 11.04 20.75 12C20.75 12.96 19.96 13.75 19 13.75ZM19 11.75C18.86 11.75 18.75 11.86 18.75 12C18.75 12.28 19.25 12.28 19.25 12C19.25 11.86 19.14 11.75 19 11.75Z" />
</svg>

<?xml version="1.0" encoding="UTF-8"?>
<svg width="24" height="24" viewBox="0 0 24 24" xmlns="http://www.w3.org/2000/svg">
 <path d="m12.13 22.75c-0.27 0-0.4801-0.07-0.6301-0.14-0.36-0.17-0.97-0.64-0.97-1.9v-6.45l-5.3899 4.94c-0.3 0.28-0.78003 0.26-1.06-0.05s-0.25998-0.78 0.05002-1.06l6.4-5.87v-0.45l-6.4-5.87c-0.31-0.28-0.33002-0.75-0.05002-1.06 0.28-0.3 0.76003-0.32999 1.06-0.04999l5.3899 4.94v-6.45c0-1.26 0.61-1.74 0.97-1.9 0.36-0.17 1.11-0.33002 2.08 0.47998l3.85 3.21c0.42 0.35 0.67 0.85001 0.68 1.38 0.01 0.52999-0.21 1.04-0.62 1.41l-4.5 4.13 4.5 4.13c0.4 0.37 0.63 0.89 0.62 1.41-0.01 0.53-0.26 1.03-0.68 1.38l-3.85 3.21c-0.57 0.49-1.0699 0.63-1.4499 0.63zm-0.1001-9.6v7.56c0 0.37 0.08 0.53 0.12 0.55 0.01-0.01 0.19-0.05 0.47-0.28l3.85-3.21c0.09-0.08 0.14-0.17 0.14-0.27s-0.0399-0.19-0.1299-0.27l-4.4501-4.08zm0.09-10.4c-0.01 0.01-0.09 0.18001-0.09 0.54001v7.56l4.4501-4.08c0.09-0.08 0.1299-0.16999 0.1299-0.26999s-0.05-0.18999-0.14-0.26999l-3.86-3.21c-0.26-0.22-0.43-0.26999-0.49-0.26999z"/>
 <path d="m5 13.75c-0.96 0-1.75-0.79-1.75-1.75s0.79-1.75 1.75-1.75 1.75 0.79 1.75 1.75-0.79 1.75-1.75 1.75zm0-2c-0.14 0-0.25 0.11-0.25 0.25 0 0.28 0.5 0.28 0.5 0 0-0.14-0.11-0.25-0.25-0.25z"/>
 <path d="m19 13.75c-0.96 0-1.75-0.79-1.75-1.75s0.79-1.75 1.75-1.75 1.75 0.79 1.75 1.75-0.79 1.75-1.75 1.75zm0-2c-0.14 0-0.25 0.11-0.25 0.25 0 0.28 0.5 0.28 0.5 0 0-0.14-0.11-0.25-0.25-0.25z"/>
</svg>
